X:262
T: WAS WOLLN WIR ABER HEBEN AN
N: E0137
O: Europa, Mitteleuropa, Deutschland
R: erzaehlendes Volks - Lied, Schalk -, Schelmen - Lied, Liebe
M: 6/4
L: 1/4
K: F
F | F2GA2A | B2GA2
A | B2cd2d | c3B2
c | cccc2A | BdcA2
A | G2ABAB | G3F2

@@@ Tune index: 3912
